X:1
T:Title
%%score { 1 | 2 }
L:1/8
Q:1/4=100
M:4/4
K:G
V:1 treble nm="Grand Piano"
V:2 treble 
V:1
 G2 G>G B2 B2 | [CFA]4 [B,G]4 | B2 B>B d2 d2 | B6 z2 | A2 A>A B2 [=Fd]2 | [Ed]4 [Ec]4 | %6
w: Robert~Lowry * * * *||||||
 [B,DG]2 [B,DG]>[B,DG] [DGB]2 [CFA]>[CFA] | [B,G]6 z2 |] %8
w: ||
V:2
 [G,B,D]2 [G,B,D]>[G,B,D] [G,DG]2 [G,DG]2 | D,4 G,,4 | [G,D]2 [G,D]>[G,D] [G,B,D]2 [F,A,D]2 | %3
 [G,D]6 z2 | [D,F,D]2 [D,F,D]>[D,F,D] [G,D]2 [B,,G,]2 | [C,G,]4 [C,G,]4 | D,2 D,>D, D,2 D,>D, | %7
 G,,6 z2 |] %8

